X:1
T:Air
T:JS Bach   arr. Dempsey
%%score ( 1 2 3 )
L:1/8
Q:1/4=44
M:4/4
K:D
V:1 treble-8 nm="Guitar"
V:2 treble-8 
V:3 treble-8 
V:1
|:"^Lento" [Adf]8 | !0!!3![Bd]b/g/{f} [Ee]/d/c/d/ [EAc]2{B} A2 | a4 z/ f/=c/B/ e/^d/a/g/ | %3
 g4 z/ e/B/A/ d/c/g/f/ | [Af]3 ^g/a/ [FAd]d/4e/4f/- f/e/e/d/ |1 %5
 c/B/[AB]/4c/4d/ [B,Ad][E^Gc]/B/ [EA]4 :|2 c/B/[AB]/4c/4d/ [B,Ad][E^Gc]/B/ [A,EA]4 |: %7
 [EAc]2 c/d/4c/4B/4c/4A/ a3 z | Bb- b/a/g/f/ g2- g/4f/4e/4=d/4^c/B/ | %9
 ^A/[DB]/[Ec-] [Gc]/[Fd]/[Ge-] [Fe]/[df]/[cg-] [cg][cf] | %10
 [FBe]/d/[Ec]/[DB]/ !0![GBc]/d/4e/4d [FB]4 | d2- [Ad]/f/[Ae]/d/ b2-"^CV......" ba/^g/ | %12
{f} e/a/A B3/2c/4d/4 c>[DB] A2 | [Ad-][Bd]/=c/ [Bd]/^c/!1![DBf]/e/ [Be-][Ece]/B/ c/^d/[ceg]/f/ | %14
 [cf][F^d]/c/ d/e/[Fda]/g/ g4 | [EA]/C/E/A/ A/c/[Ae]/g/ [Ag]/e/[cf-]/[df-]/ [Adf-]f/g/4a/4 | %16
 [DAd-][EGd] [FA]/f/a/=c'/ [DBb]3 d | [G^c]/e/ [GBg]2 B Ae/f/4g/4- g/fe/ | d/4c/4Bc/ dc/d/ d4 |] %19
V:2
|: D,DcC B,BAA, | !1!G,G^G^G, A,A=G=G, | F,FE!1!E, !1![^D,B]^DB,B | E,E=DD, [EA]CA,A | %4
 DdcC B,[B,^G][GB][EG] |1 ADEE, A,/B,/C/D/ E/=G/F/E/ :|2 ADEE, x4 |: A,AGG, F,FEE, | %8
 [^D,F]^D[F^d][B,Bd] [E,B]E[B,=D]=D, | CCB,B, ^A,B,^AA, | B,G EF/E/ B,B=AA, | %11
 !1!^G,^GFF, EE[De]D, | [CB][CE][DF][E^G] [A,EA]A=GG, | F,FG!4!G, ^G,^GAA, | ^A,^ABB, E,EDD, | %15
 CA,CA, DD,=C[A=c] | B,B,A,A GG,F,F | EE,/G/ D,D CA,[DA]G | [A,FA]GA,G D,4 |] %19
V:3
|: x8 | x8 | A=c/!0!B/ ca/c/ x4 | B[Be]/=d/ e/f/g/e/ x4 | x8 |1 x8 :|2 x8 |: %7
 x4 A/B/[^D=c] F/B/[Ac]/G/ | x8 | e4 x4 | x8 | EB x2 !0![^GB]E/F/ ^G/A/[Be] | x6 C/D/E/C/ | x8 | %14
 x9/2 ^d/e/B/ E/B/G/E/ | x8 | x8 | x2 [B,E]/A,/G/F/ E A2 B | x2 [EG]/F/A/ x/ [FA]4 |] %19

